!!!!SEGMENT: pl-kk--kk-i-67--003_anonim--missa-credo.krn
!!!cenid: 17xx:2269
!!!COM: Anonim
!!!COM-rism: pe30004985
!!!CDT:
!!!CNT:
!!!OTL: Missa – Credo
!!!PDT:
!!!AGN: Sacred; Mass
!!!SMS-siglum: PL-Kk
!!!SMS-shelfmark: Kk.I.67
!!!NIFC-rismID: 1001154623
!!!URL-scan: http://repozytorium.nifc.pl/skany/pl-kk-nut--i-67
!!!ONB-nifc: UWAGA: części Mszy: 1. Kyrie, 2. Et in terra, 3. Credo, 4. Sanctus, 5. Agnus Dei, 6. Dona nobis
!!!SMS-variant:
!!!SMS-altvar:
**kern	**text	**dynam	**kern	**text	**dynam	**kern	**text	**dynam	**kern	**text	**dynam
*part4	*part4	*part4	*part3	*part3	*part3	*part2	*part2	*part2	*part1	*part1	*part1
*staff4	*staff4	*	*staff3	*staff3	*	*staff2	*staff2	*	*staff1	*staff1	*
*I"Baſso	*	*	*I"Tenore	*	*	*I"Alto	*	*	*I"Canto	*	*
*I'B	*	*	*I'T	*	*	*I'A	*	*	*I'C	*	*
*clefF4	*	*	*clefC4	*	*	*clefC3	*	*	*clefC1	*	*
*k[b-]	*	*	*k[b-]	*	*	*k[b-]	*	*	*k[b-]	*	*
*M2/2	*	*	*M2/2	*	*	*M2/2	*	*	*M2/2	*	*
*met(c|)	*	*	*met(c|)	*	*	*met(c|)	*	*	*met(c|)	*	*
=1	=1	=1	=1	=1	=1	=1	=1	=1	=1	=1	=1
!LO:TX:a:t=mod&colon;	!	!	!LO:TX:a:t=moderato	!	!	!LO:TX:a:t=mod&colon;	!	!	!LO:TX:a:t=mod	!	!
4F\	Pa-	.	4c\	Pa-	.	4a\	Pa-	.	4ff\	Pa-	.
8F\	-trem	.	8c\	-trem	.	8a\	-trem	.	8cc\	-trem	.
8F\	om-	.	8B-\	om-	.	8b-\	o-	.	8dd\	o-	.
4F\	-ni-	.	4c\	-ni-	.	4a\	-mni-	.	4cc\	-mni-	.
4E\	-po-	.	4c\	-po-	.	4g\	-po-	.	4b-\	-po-	.
=2	=2	=2	=2	=2	=2	=2	=2	=2	=2	=2	=2
4F\	-ten-	.	4c\	-ten-	.	4g\	-ten-	.	4b-\	-ten-	.
4F\	-tem,	.	4c\	-tem,	.	4f\	-tem	.	4a\	-tem	.
4r	.	.	4r	.	.	4r	.	.	4r	.	.
4F\	fac-	.	4c\	fac-	.	4f\	fac-	.	4a\	fa-	.
=3	=3	=3	=3	=3	=3	=3	=3	=3	=3	=3	=3
4C/	-to-	.	4c\	-to-	.	4e\	-to-	.	4g\	-cto-	.
4C/	-rem	.	4c\	-rem	.	4f\	-rem	.	4a\	-rem	.
4C/	cae-	.	4c\	cae-	.	8a\L	cae-	.	8cc\L	cae-	.
.	.	.	.	.	.	8g\J	.	.	8b-\J	.	.
8C/	-li	.	8c\	-li	.	8f\	-li	.	8a\	-li	.
8C/	et	.	8c\	et	.	8e\	et	.	8g\	et	.
=4	=4	=4	=4	=4	=4	=4	=4	=4	=4	=4	=4
4F\	ter-	.	8c\L	ter-	.	8f\L	ter-	.	8a\L	ter-	.
.	.	.	8B-\J	.	.	8g\J	.	.	8b-\J	.	.
4F\	-rae	.	4A\	-rae,	.	4a\	-rae	.	4cc\	-rae	.
!	!	!	!	!	!	!LO:LB:g=original	!	!	!	!	!
=-	=-	=-	=-	=-	=-	=-	=-	=-	=-	=-	=-
4r	.	.	4r	.	.	4r	.	.	4r	.	.
8C/	vi-	.	8c\	vi-	.	8e\	vi-	.	8g\	vi-	.
8C/	-si-	.	8G/	-si-	.	8e\	-si-	.	8cc\	-si-	.
!LO:LB:g=original	!	!	!LO:LB:g=original	!	!	!	!	!	!LO:LB:g=original	!	!
=5	=5	=5	=5	=5	=5	=5	=5	=5	=5	=5	=5
4GG/	-bi-	.	4G/	-bi-	.	4e\	-bi-	.	4cc\	-bi-	.
8G\	-li-	.	8G/	-li-	.	8d\	-li-	.	8bn\	-li-	.
8G\	-um	.	8G/	-um	.	8e\	-um	.	8cc\	-um	.
4.G\	om-	.	4G/	om-	.	8g\L	om-	.	8ee\L	om-	.
.	.	.	.	.	.	8f\J	.	.	8dd\J	.	.
.	.	.	4G/	-ni-	.	8e\L	-ni-	.	8cc\L	-ni-	.
8G\	-ni-	.	.	.	.	8d\J	.	.	8bn\J	.	.
=6	=6	=6	=6	=6	=6	=6	=6	=6	=6	=6	=6
*	*	*	*	*	*	*2\right	*	*	*2\right	*	*
2C/	-um	.	2G/	-um	.	2e\	-um,	.	2cc\	-um	.
4GG/	et	.	4Bn\	et	.	4f\	et	.	4dd\	et	.
4BBn/	in	.	4d\	in	.	4g\	in	.	4ff\	in	.
=7	=7	=7	=7	=7	=7	=7	=7	=7	=7	=7	=7
4C/	vi-	.	4c\	vi-	.	4g\	vi-	.	4ee\	vi-	.
4F\	-si-	.	4Bn\	-si-	.	8a\L	-si-	.	8ff\L	-si-	.
.	.	.	.	.	.	8f\J	.	.	8dd\J	.	.
4G\	-bi-	.	4G/	-bi-	.	4e\	-bi-	.	4cc\	-bi-	.
4GG/	-li-	.	4G/	-li-	.	4d\	-li-	.	4bn\	-li-	.
=8	=8	=8	=8	=8	=8	=8	=8	=8	=8	=8	=8
2C/	-um.	.	2G/	-um.	.	2e\	-um.	.	2cc\	-um	.
4C/	Et	.	8G/L	Et	.	4g\	Et	.	8cc\L	Et	.
.	.	.	8c/J	.	.	.	.	.	8ee\J	.	.
4GG/	in	.	8Bn\L	in	.	4g\	in	.	8dd\L	in	.
.	.	.	8d\J	.	.	.	.	.	8ff\J	.	.
!	!	!	!	!	!	!LO:PB:g=original	!	!	!	!	!
=9	=9	=9	=9	=9	=9	=9	=9	=9	=9	=9	=9
4C/	u-	.	4c\	u-	.	4g\	u-	.	4ee\	u-	.
4G\	-num	.	4B-\	-num	.	4g\	-num	.	4dd\	-num	.
4F\	do-	.	8d\L	Do-	.	4g\	Do-	.	8ff\L	Do-	.
.	.	.	8c\J	.	.	.	.	.	8ee\J	.	.
8F\	-mi-	.	8B-\	-mi-	.	8f\	-mi-	.	8dd\	-mi-	.
!LO:TX:b:t=Verte	!	!	!	!	!	!	!	!	!	!	!
8F#X\	-num	.	8c\	-num	.	8e\	-num	.	8cc\	-num	.
!LO:PB:g=original	!	!	!	!	!	!	!	!	!LO:LB:g=original	!	!
=10	=10	=10	=10	=10	=10	=10	=10	=10	=10	=10	=10
*k[]	*	*	*k[]	*	*	*k[]	*	*	*k[]	*	*
*	*	*	*	*	*	*	*	*	*	*	*
!LO:TX:t=P:problem:brak zaznaczonej zmiany znaków	!	!	!	!	!	!LO:TX:t=P:problem:brak zaznaczonej zmiany znaków	!	!	!	!	!
4G\	Je-	.	4G/	Je-	.	4d\	Je-	.	4b\	Je-	.
4GG/	-sum	.	4G/	-sum	.	4e\	-sum	.	4cc\	-sum	.
!	!	!	!LO:LB:g=original	!	!	!	!	!	!	!	!
=-	=-	=-	=-	=-	=-	=-	=-	=-	=-	=-	=-
*	*	*	*2\right	*	*	*	*	*	*	*	*
8BB/L	Chri-	.	2B\	Chri-	.	2f\	Chris-	.	2dd\	Chri-	.
8GG/	.	.	.	.	.	.	.	.	.	.	.
8AA/	.	.	.	.	.	.	.	.	.	.	.
8BB/J	.	.	.	.	.	.	.	.	.	.	.
=11	=11	=11	=11	=11	=11	=11	=11	=11	=11	=11	=11
2C/	-stum	.	2G/	-stum,	.	2e\	-tum	.	2cc\	-stum	.
4c\	Fi-	.	4G/	fi-	.	4e\	fi-	.	4cc\	Fi-	.
8c\	-li-	.	8G/	-li-	.	8e\	-li-	.	8cc\	-li-	.
8c\	-um	.	8G/	-um	.	8e\	-um	.	8cc\	-um	.
=12	=12	=12	=12	=12	=12	=12	=12	=12	=12	=12	=12
*2\right	*	*	*	*	*	*	*	*	*	*	*
2A\	De-	.	2A\	De-	.	2f#X\	De-	.	2cc\	De-	.
2G\	-i	.	2d\	-i	.	2g\	-i	.	2b\	-i	.
=13	=13	=13	=13	=13	=13	=13	=13	=13	=13	=13	=13
4C/	u-	.	4d\	u-	.	4a\	u-	.	4cc\	u-	.
4D/	-ni-	.	4d\	-ni-	.	4g\	-ni-	.	4b\	-ni-	.
4D/	-ge-	.	4d\	-ge-	.	4g\	-ge-	.	4b\	-ge-	.
4D/	-ni-	.	4d\	-ni-	.	4f#X\	-ni-	.	4a\	-ni-	.
=14	=14	=14	=14	=14	=14	=14	=14	=14	=14	=14	=14
2G\	-tum	.	2d\	-tum	.	2g\	-tum	.	2b\	-tum	.
2r	.	.	4G/	Et	.	2r	.	.	4b\	Et	.
.	.	.	4A/	ex	.	.	.	.	4cc\	ex	.
!	!	!	!	!	!	!LO:LB:g=original	!	!	!	!	!
=15	=15	=15	=15	=15	=15	=15	=15	=15	=15	=15	=15
1r	.	.	4B\	Pa-	.	1r	.	.	4dd\	Pa-	.
.	.	.	4c\	-tre	.	.	.	.	4ee\	-tre	.
.	.	.	2d\	na-	.	.	.	.	2ff\	na-	.
!	!	!	!	!	!	!	!	!	!LO:LB:g=original	!	!
=16	=16	=16	=16	=16	=16	=16	=16	=16	=16	=16	=16
2r	.	.	2c\	-tum	.	2r	.	.	2ee\	-tum	.
4C/	an-	.	4c\	an-	.	8e\L	an-	.	8gg\L	an-	.
.	.	.	.	.	.	8g\J	.	.	8ee\J	.	.
4E/	-te	.	4c\	-te	.	8a\L	-te	.	8cc\L	-te	.
.	.	.	.	.	.	8g\J	.	.	8b-X\J	.	.
!LO:LB:g=original	!	!	!LO:LB:g=original	!	!	!	!	!	!	!	!
=17	=17	=17	=17	=17	=17	=17	=17	=17	=17	=17	=17
8F\L	om-	.	4.c\	om-	.	4.f\	om-	.	4.a\	om-	.
8C\J	.	.	.	.	.	.	.	.	.	.	.
8AA/L	-ni-	.	.	.	.	.	.	.	.	.	.
8C/J	.	.	8c\	-ni-	.	8f\	-ni-	.	8a\	-ni-	.
2F\	-a	.	2c\	-a	.	2f\	-a	.	2a\	-a	.
=18	=18	=18	=18	=18	=18	=18	=18	=18	=18	=18	=18
!LO:TX:t=P:problem:korekta tekstu	!	!	!	!	!	!	!	!	!	!	!
2.F\	Sae-	.	2c\	sae-	.	4a\	sae-	.	4ff\	Sae-	.
.	.	.	.	.	.	4g\	.	.	4ee\	.	.
.	.	.	4B\	.	.	4f\	.	.	4dd\	.	.
4F#X\	-cu-	.	4c\	-cu-	.	4e\	-cu-	.	4cc\	-cu-	.
=19	=19	=19	=19	=19	=19	=19	=19	=19	=19	=19	=19
4G\	-la	.	4G/	-la	.	4d\	-la	.	4bn\	-la	.
4r	.	.	4r	.	.	4r	.	.	4r	.	.
2r	.	.	2r	.	.	2r	.	.	2r	.	.
=20	=20	=20	=20	=20	=20	=20	=20	=20	=20	=20	=20
!	!	!	!	!	!	!LO:N:vis=8	!	!	!	!	!
4G\	De-	.	8d\L	De-	.	4g\	De-	.	8ff\L	De-	.
.	.	.	8f\J	.	.	.	.	.	8dd\J	.	.
8G\	-um	.	8e\	-um	.	8g\	-um	.	8cc\	-um	.
8G\	de	.	8d\	de	.	8g\	de	.	8b\	de	.
8c\L	De-	.	4e\	De-	.	4g\	De-	.	4cc\	De-	.
8G\J	.	.	.	.	.	.	.	.	.	.	.
8E\L	-o	.	4e\	-o	.	4e\	-o	.	4g\	-o	.
8C\J	.	.	.	.	.	.	.	.	.	.	.
!	!	!	!	!	!	!	!	!	!LO:LB:g=original	!	!
=21	=21	=21	=21	=21	=21	=21	=21	=21	=21	=21	=21
4G\	lu-	.	8d\L	lu-	.	4g\	lu-	.	8ff\L	lu-	.
.	.	.	8f\J	.	.	.	.	.	8dd\J	.	.
8G\	-men	.	8e\	-men	.	8g\	-men	.	8cc\	-men	.
8G\	de	.	8d\	de	.	8g\	de	.	8b\	de	.
!	!	!	!	!	!	!LO:LB:g=original	!	!	!	!	!
=-	=-	=-	=-	=-	=-	=-	=-	=-	=-	=-	=-
8c\L	lu-	.	8e\	lu-	.	8g\	lu-	.	8cc\	lu-	.
8G\J	.	.	8e\	-mi-	.	8g\	-mi-	.	8cc\	-mi-	.
8E\	-mi-	.	4e\	-ne	.	4e\	-ne	.	4g\	-ne	.
8C\	-ne	.	.	.	.	.	.	.	.	.	.
!	!	!	!LO:LB:g=original	!	!	!	!	!	!	!	!
=22	=22	=22	=22	=22	=22	=22	=22	=22	=22	=22	=22
4F\	De-	.	4c\	De-	.	4f\	De-	.	8a\L	De-	.
.	.	.	.	.	.	.	.	.	8cc\J	.	.
4G\	-um	.	8d\L	-um	.	4d\	-um	.	8b\L	-um	.
.	.	.	8B\J	.	.	.	.	.	8dd\J	.	.
!LO:LB:g=original	!	!	!	!	!	!	!	!	!	!	!
=-	=-	=-	=-	=-	=-	=-	=-	=-	=-	=-	=-
4E\	ve-	.	4G/	ve-	.	4g\	ve-	.	8cc\L	ve-	.
.	.	.	.	.	.	.	.	.	8ee\J	.	.
8BB/	-rum	.	8B\	-rum	.	8g\	-rum	.	8dd\	-rum	.
8BB/	de	.	8d\	de	.	8g\	de	.	8ff\	de	.
=23	=23	=23	=23	=23	=23	=23	=23	=23	=23	=23	=23
4C/	De-	.	4c\	De-	.	8g\L	De-	.	8ee\L	De-	.
.	.	.	.	.	.	8e\J	.	.	8cc\J	.	.
4F\	-o	.	4A\	-o	.	8a\	-o	.	8ff\	-o	.
.	.	.	.	.	.	8f\	.	.	8dd\	.	.
4G\	ve-	.	2G/	ve-	.	4e\	ve-	.	4cc\	ve-	.
4GG/	.	.	.	.	.	4d\	.	.	4b\	.	.
=24	=24	=24	=24	=24	=24	=24	=24	=24	=24	=24	=24
2C/	-ro	.	2G/	-ro.	.	2e\	-ro.	.	2cc\	-ro	.
2r	.	.	8A\	Ge-	.	8e\	Ge-	.	8cc\	Ge-	.
.	.	.	8c\	-ni-	.	8e\	-ni-	.	8ee\	-ni-	.
.	.	.	8B\	-tum	.	8e\	-tum	.	8dd\	-tum	.
.	.	.	8A\	non	.	8e\	non	.	8cc\	non	.
!	!	!	!	!	!	!	!	!	!LO:LB:g=original	!	!
=25	=25	=25	=25	=25	=25	=25	=25	=25	=25	=25	=25
0r	.	.	4G#X/	fa-	.	4e\	fa-	.	4b\	fa-	.
.	.	.	4G#/	-ctum	.	4e\	-ctum	.	4b\	-ctum	.
.	.	.	8G#/	con-	.	8e\	con-	.	8b\	con-	.
.	.	.	8B/	-sub-	.	8e\	-sub-	.	8dd\	-sub-	.
!	!	!	!	!	!	!LO:LB:g=original	!	!	!	!	!
=-	=-	=-	=-	=-	=-	=-	=-	=-	=-	=-	=-
.	.	.	8A/	-stan-	.	8e\	-stan-	.	8cc\	-stan-	.
.	.	.	8G#/	-ti-	.	8e\	-ti-	.	8b\	-ti-	.
=26	=26	=26	=26	=26	=26	=26	=26	=26	=26	=26	=26
.	.	.	4A/	-a-	.	2.e\	-a-	.	4cc\	-a-	.
.	.	.	8G/L	.	.	.	.	.	8b\L	.	.
.	.	.	8A/J	.	.	.	.	.	8cc\J	.	.
.	.	.	4B/	.	.	.	.	.	4dd\	.	.
.	.	.	4A/	-lem	.	4e\	-lem	.	4cc\	-lem	.
!	!	!	!LO:LB:g=original	!	!	!	!	!	!	!	!
=27	=27	=27	=27	=27	=27	=27	=27	=27	=27	=27	=27
2r	.	.	4A/	Pa-	.	4e\	Pa-	.	4cc\	Pa-	.
.	.	.	4G#X/	-tri	.	4e\	-tri	.	4b\	-tri	.
4E\	per	.	4G#/	per	.	4e\	per	.	4b\	per	.
4E\	quem	.	4A/	quem	.	4e\	quem	.	4cc\	quem	.
=28	=28	=28	=28	=28	=28	=28	=28	=28	=28	=28	=28
8E\L	om-	.	4.B\	om-	.	4.e\	om-	.	4.dd\	om-	.
8G#X\J	.	.	.	.	.	.	.	.	.	.	.
8B\	.	.	.	.	.	.	.	.	.	.	.
8G#\	-ni-	.	8A\	-ni-	.	8e\	-ni-	.	8cc\	-ni-	.
2E\	-a	.	2B\	-a	.	2e\	-a	.	2dd\	-a	.
=29	=29	=29	=29	=29	=29	=29	=29	=29	=29	=29	=29
4A\	fac-	.	4A\	fa-	.	2.e\	fa-	.	4cc\	fa-	.
4D\	.	.	8B\L	.	.	.	.	.	8dd\L	.	.
.	.	.	8G#X\J	.	.	.	.	.	8b\J	.	.
4E\	.	.	4A/	.	.	.	.	.	4cc\	.	.
4E\	-ta	.	4G#/	-cta-	.	4e\	-cta	.	4b\	-cta	.
!LO:LB:g=original	!	!	!	!	!	!	!	!	!LO:LB:g=original	!	!
=30	=30	=30	=30	=30	=30	=30	=30	=30	=30	=30	=30
2AA/	sunt.	.	2A/	-sunt	.	2e\	sunt	.	2a\	sunt	.
2GGn/	qui	.	2B/	qui	.	2f\	qui	.	2g\	qui	.
=31	=31	=31	=31	=31	=31	=31	=31	=31	=31	=31	=31
4C/	p(ro)p-	.	2Gn/	pro-	.	4e\	prop-	.	4cc\	prop-	.
4BB/	.	.	.	.	.	4f\	.	.	4dd\	.	.
4C/	-ter	.	4G/	-pter	.	8a\L	-ter	.	8ff\L	-ter	.
.	.	.	.	.	.	8g\J	.	.	8ee\J	.	.
4F\	nos	.	4G/	nos	.	8f\L	nos	.	8dd\L	nos	.
.	.	.	.	.	.	8e\J	.	.	8cc\J	.	.
!	!	!	!	!	!	!LO:LB:g=original	!	!	!	!	!
=32	=32	=32	=32	=32	=32	=32	=32	=32	=32	=32	=32
4.G\	ho-	.	4.G/	ho-	.	4.d\	ho-	.	4.b\	ho-	.
8G\	-mi-	.	8G/	-mi-	.	8d\	-mi-	.	8b\	-mi-	.
4.G\	-nes	.	4G/	-nes	.	4d\	-nes	.	4b\	-ne	.
.	.	.	4G/	et	.	4d\	et	.	4b\	et	.
8G\	et	.	.	.	.	.	.	.	.	.	.
=33	=33	=33	=33	=33	=33	=33	=33	=33	=33	=33	=33
4B\	p(ro)p-	.	4d\	pro-	.	4d\	pro-	.	4b\	prop-	.
4A\	-ter	.	4c\	-pter	.	4e\	-pter	.	4cc\	-ter	.
!	!	!	!LO:LB:g=original	!	!	!	!	!	!	!	!
=-	=-	=-	=-	=-	=-	=-	=-	=-	=-	=-	=-
4G\	no-	.	4B\	no-	.	4f\	no-	.	4dd\	no-	.
8A\	-stram	.	8c\	-stram	.	8e\	-stram	.	8cc\	-stram	.
8B\	Sa-	.	8d\	sa-	.	8d\	sa-	.	8b\	sa-	.
=34	=34	=34	=34	=34	=34	=34	=34	=34	=34	=34	=34
4c\	-lu-	.	4G/	-lu-	.	4e\	-lu-	.	4cc\	-lu-	.
4G\	-tem	.	4G/	-tem	.	4d\	-tem	.	4b\	-tem	.
2r	.	.	2r	.	.	2r	.	.	4r	.	.
.	.	.	.	.	.	.	.	.	4g/	de-	.
!	!	!	!	!	!	!	!	!	!LO:LB:g=original	!	!
=35	=35	=35	=35	=35	=35	=35	=35	=35	=35	=35	=35
0r	.	.	1r	.	.	2r	.	.	4gg\	-scen-	.
.	.	.	.	.	.	.	.	.	4ff\	.	.
.	.	.	.	.	.	4r	.	.	4ee\	-dit	.
.	.	.	.	.	.	4G/	de-	.	4dd\	des-	.
=36	=36	=36	=36	=36	=36	=36	=36	=36	=36	=36	=36
.	.	.	2r	.	.	4g\	-scen-	.	4ee\	-cen-	.
.	.	.	.	.	.	4f\	.	.	4dd\	.	.
.	.	.	4r	.	.	4e\	-dit	.	4cc\	-dit	.
.	.	.	4G/	des-	.	4d\	des-	.	4b\	des-	.
=37	=37	=37	=37	=37	=37	=37	=37	=37	=37	=37	=37
2r	.	.	4g\	-cen-	.	4e\	-cen-	.	4cc\	-cen-	.
.	.	.	4f\	.	.	4d\	.	.	4b\	.	.
!	!	!	!	!	!	!LO:LB:g=original	!	!	!	!	!
=-	=-	=-	=-	=-	=-	=-	=-	=-	=-	=-	=-
4r	.	.	4e\	-dit	.	4c/	-dit	.	4g\	-dit	.
4GG/	de-	.	4d\	des-	.	4B/	des-	.	4g\	des-	.
!LO:LB:g=original	!	!	!	!	!	!	!	!	!	!	!
=38	=38	=38	=38	=38	=38	=38	=38	=38	=38	=38	=38
4G\	-scen-	.	4e\	-cen-	.	4c\	-cen-	.	4g\	-cen-	.
4F\	.	.	4d\	.	.	4d\	.	.	4b\	.	.
4E\	-dit	.	4c\	-dit	.	4e\	-dit	.	4cc\	-dit	.
4D\	de	.	4B\	de	.	4f\	de	.	4g\	de	.
=39	=39	=39	=39	=39	=39	=39	=39	=39	=39	=39	=39
4C\	cae-	.	2c\	cae-	.	2e\	cae-	.	1g	cae-	.
4E\	.	.	.	.	.	.	.	.	.	.	.
4G\	.	.	2B\	.	.	2d\	.	.	.	.	.
4GG/	.	.	.	.	.	.	.	.	.	.	.
=40	=40	=40	=40	=40	=40	=40	=40	=40	=40	=40	=40
2C/	-lis	.	2c\	-lis	.	2e\	-lis	.	2g/	-lis	.
2r	.	.	2r	.	.	2r	.	.	4r	.	.
.	.	.	.	.	.	.	.	.	4g/	Des-	.
!	!	!	!LO:LB:g=original	!	!	!	!	!	!	!	!
=41	=41	=41	=41	=41	=41	=41	=41	=41	=41	=41	=41
0r	.	.	1r	.	.	2r	.	.	4gg\	-cen-	.
.	.	.	.	.	.	.	.	.	4ff\	.	.
.	.	.	.	.	.	4r	.	.	4ee\	-dit	.
!	!	!	!	!	!	!	!	!LO:DY:a:t=p&colon;	!	!	!
.	.	.	.	.	.	4G/	des-	p	4dd\	de[s]-	.
!	!	!	!	!	!	!	!	!	!LO:LB:g=original	!	!
=42	=42	=42	=42	=42	=42	=42	=42	=42	=42	=42	=42
.	.	.	2r	.	.	4g\	-cen-	.	4ee\	-cen-	.
.	.	.	.	.	.	4f\	.	.	4dd\	.	.
!	!	!	!	!	!LO:DY:a	!	!	!	!	!	!
.	.	.	4r	.	p	4e\	-dit	.	4cc\	-dit	.
.	.	.	4G/	des-	.	4d\	des-	.	4b\	Des-	.
=43	=43	=43	=43	=43	=43	=43	=43	=43	=43	=43	=43
2r	.	.	4g\	-cen-	.	4e\	-cen-	.	4cc\	-cen-	.
.	.	.	4f\	.	.	4d\	.	.	4b\	.	.
4r	.	.	4e\	-dit	.	4c/	-dit	.	4g\	-dit	.
!	!	!LO:DY:a:t=p&colon;	!	!	!	!	!	!	!	!	!
4GG/	De-	p	4d\	des-	.	4B/	de-	.	4g\	des-	.
!	!	!	!	!	!	!LO:LB:g=original	!	!	!	!	!
=44	=44	=44	=44	=44	=44	=44	=44	=44	=44	=44	=44
4G\	-scen-	.	4e\	-cen-	.	4c\	-scen-	.	4g\	-ce[n]-	.
4F\	.	.	4d\	.	.	4d\	.	.	4b\	.	.
4E\	-dit	.	4c\	-dit	.	4e\	-dit	.	4cc\	-dit	.
!	!	!LO:DY:a:t=fu	!	!	!LO:DY:a:t=for	!	!	!LO:DY:b:t=fo&colon;	!	!	!
4D\	de	f	4B\	de-	f	4f\	de-	f	4g\	de-	.
=45	=45	=45	=45	=45	=45	=45	=45	=45	=45	=45	=45
4C\	cae-	.	2c\	-cae-	.	2e\	-cae-	.	1g	-cae-	.
4E\	.	.	.	.	.	.	.	.	.	.	.
4G\	.	.	2B\	.	.	2d\	.	.	.	.	.
4GG/	.	.	.	.	.	.	.	.	.	.	.
=46	=46	=46	=46	=46	=46	=46	=46	=46	=46	=46	=46
2C/	-lis	.	2c\	-lis	.	2e\	-lis	.	2g\	-lis	.
2r	.	.	2r	.	.	2r	.	.	2r	.	.
!LO:LB:g=original	!	!	!LO:LB:g=original	!	!	!LO:LB:g=original	!	!	!LO:LB:g=original	!	!
=47||	=47||	=47||	=47||	=47||	=47||	=47||	=47||	=47||	=47||	=47||	=47||
*k[]	*	*	*k[]	*	*	*k[]	*	*	*k[]	*	*
*	*	*	*	*	*	*	*	*	*	*	*
*M3/4	*	*	*M3/4	*	*	*M3/4	*	*	*M3/4	*	*
!LO:TX:a:t=adagio	!	!	!LO:TX:a:t=adagio	!	!	!LO:TX:a:t=ada	!	!LO:DY:a:t=p&colon;	!LO:TX:a:t=ada	!	!
2.r	.	.	2.r	.	.	2.r	.	p	4a\	Et	.
.	.	.	.	.	.	.	.	.	4cc\	in	.
.	.	.	.	.	.	.	.	.	8b\L	car-	.
.	.	.	.	.	.	.	.	.	8a\J	.	.
=48	=48	=48	=48	=48	=48	=48	=48	=48	=48	=48	=48
4E\	Et	.	4G#X/	Et	.	4B/	Et	.	2.ee\	-na-	.
4G#X\	in	.	4B/	in	.	4d/	in	.	.	.	.
8F#X\L	car-	.	8A/L	car-	.	8c/L	car-	.	.	.	.
8E\J	.	.	8G#/J	.	.	8B/J	.	.	.	.	.
=49	=49	=49	=49	=49	=49	=49	=49	=49	=49	=49	=49
4.A\	-na-	.	4.A/	-na-	.	4.c/	-na-	.	4.ee\	-tus	.
8E\	-tus	.	8G#X/	-tus	.	8B/	-tus	.	8dd\	.	.
8AA/	est	.	8A/	est	.	8A/	est	.	8cc\	est	.
8A\	de	.	8A/	de	.	8e\	de	.	8cc\	de	.
=50	=50	=50	=50	=50	=50	=50	=50	=50	=50	=50	=50
4E\	spi-	.	8A/L	Spi-	.	8e\L	Spi-	.	8cc\L	Spi-	.
.	.	.	8G#X/J	.	.	8d\J	.	.	8b\J	.	.
8D\L	-ri-	.	8G#/L	-ri-	.	8f\L	-ri-	.	8dd\L	-ri-	.
8E\J	.	.	8A/J	.	.	8e\J	.	.	8cc\J	.	.
8F\L	-tu	.	8G#/L	-tu	.	8d\L	-tu	.	8b\L	-tu	.
8E\J	.	.	8A/J	.	.	8c\J	.	.	8a\J	.	.
=51	=51	=51	=51	=51	=51	=51	=51	=51	=51	=51	=51
4E\	Sanc-	.	4e\	Sanc-	.	4c/	Sanc-	.	4a\	Sanc-	.
4E\	-to	.	4e\	-to	.	4B/	-to	.	4g#X\	-to	.
4r	.	.	4r	.	.	4r	.	.	4r	.	.
!	!	!	!	!	!	!	!	!	!LO:LB:g=original	!	!
=52	=52	=52	=52	=52	=52	=52	=52	=52	=52	=52	=52
8C/	ex	.	8Gn/	ex	.	8e\	ex	.	8cc\	ex	.
8C/	Ma-	.	8G/	Ma-	.	8e\	Ma-	.	8cc\	Ma-	.
!	!	!	!	!	!	!LO:LB:g=original	!	!	!	!	!
=-	=-	=-	=-	=-	=-	=-	=-	=-	=-	=-	=-
4E/	-ri-	.	4G/	-ri-	.	4.e\	-ri-	.	4.cc\	-ri-	.
4C/	-a	.	8A/L	-a	.	.	.	.	.	.	.
.	.	.	8B-X/J	.	.	8g\	-a	.	8b-X\	-a	.
!LO:LB:g=original	!	!	!	!	!	!	!	!	!	!	!
=53	=53	=53	=53	=53	=53	=53	=53	=53	=53	=53	=53
4.F\	vir-	.	4.c\	vir-	.	4.f\	Vir-	.	4.a\	vir-	.
8F\	-gi-	.	8c\	-gi-	.	8f\	-gi-	.	8a\	-gi-	.
4F\	-ne	.	4c\	-ne	.	4f\	-ne	.	4a\	-ne	.
=54	=54	=54	=54	=54	=54	=54	=54	=54	=54	=54	=54
8D\	ex	.	8A\	ex	.	8f#X\	ex	.	8dd\	ex	.
8D\	Ma-	.	8A\	Ma-	.	8f#\	Ma-	.	8dd\	Ma-	.
4F#X\	-ri-	.	4A\	-ri-	.	4.f#\	-ri-	.	4.dd\	-ri-	.
4D\	-a	.	8BnX\L	-a	.	.	.	.	.	.	.
.	.	.	8c\J	.	.	8a\	-a	.	8cc\	-a	.
=55	=55	=55	=55	=55	=55	=55	=55	=55	=55	=55	=55
4.G\	vir-	.	4.d\	vir-	.	4.g\	vir-	.	4.bn\	vir-	.
8G\	-gi-	.	8d\	-gi-	.	8g\	-gi-	.	8b\	-gi-	.
4G\	-ne	.	4d\	-ne	.	4g\	-ne	.	4b\	-ne	.
=56	=56	=56	=56	=56	=56	=56	=56	=56	=56	=56	=56
4G#X\	et	.	4B\	et	.	4fn\	et	.	4dd\	et	.
4G#\	ho-	.	4B\	ho-	.	4f\	ho-	.	4dd\	ho-	.
4G#\	-mo	.	4B\	-mo	.	4f\	-mo	.	4dd\	-mo	.
=57	=57	=57	=57	=57	=57	=57	=57	=57	=57	=57	=57
4A\	fa-	.	4A\	fa-	.	4e/	fa-	.	4cc\	fa-	.
4G\	.	.	4B\	.	.	4d/	.	.	4b\	.	.
4A\	.	.	4c\	.	.	4c/	.	.	4a\	.	.
!	!	!	!	!	!	!	!	!	!LO:PB:g=original	!	!
=58	=58	=58	=58	=58	=58	=58	=58	=58	=58	=58	=58
4D\	.	.	2e\	-ctus	.	4d/	.	.	4b\	.	.
4E\	.	.	.	.	.	4c/	.	.	4a\	.	.
4E\	-ctus	.	4e\	.	.	4B/	-ctus	.	4g#X\	-ctus	.
!	!	!	!LO:LB:g=original	!	!	!LO:LB:g=original	!	!	!	!	!
=59	=59	=59	=59	=59	=59	=59	=59	=59	=59	=59	=59
2F;\	est	.	2d;>\	est	.	2B;>/	est	.	2g;>\	est	.
4r	.	.	4r	.	.	4r	.	.	4r	.	.
!LO:LB:g=original	!	!	!	!	!	!	!	!	!	!	!
=60	=60	=60	=60	=60	=60	=60	=60	=60	=60	=60	=60
4G#\	et	.	4BnX\	et	.	4fn\	et	.	4dd\	et	.
4G#\	ho-	.	4B\	ho-	.	4f\	ho-	.	4dd\	ho-	.
4G#\	-mo	.	4B\	-mo	.	4f\	-mo	.	4dd\	-mo	.
=61	=61	=61	=61	=61	=61	=61	=61	=61	=61	=61	=61
4A\	fa-	.	4A\	fa-	.	4e\	fa-	.	4cc\	fa-	.
4E\	.	.	4B\	.	.	4g#X\	.	.	4b\	.	.
4C/	.	.	4A\	.	.	4a\	.	.	4cc\	.	.
=62	=62	=62	=62	=62	=62	=62	=62	=62	=62	=62	=62
4D/	.	.	4G#X/	.	.	4b\	.	.	4dd\	.	.
4E/	-ctus	.	4e\	-ctus	.	4a\	.	.	4cc\	.	.
4E/	.	.	4e\	.	.	4g#X\	-ctus	.	4b\	-ctus	.
=63	=63	=63	=63	=63	=63	=63	=63	=63	=63	=63	=63
2AA/	est	.	2e\	est	.	2a\	est	.	2cc;>\	est	.
4r	.	.	4r	.	.	4r	.	.	4r	.	.
!	!	!	!LO:PB:g=original	!	!	!	!	!	!	!	!
=64||	=64||	=64||	=64||	=64||	=64||	=64||	=64||	=64||	=64||	=64||	=64||
*k[]	*	*	*k[]	*	*	*k[]	*	*	*k[]	*	*
*	*	*	*	*	*	*	*	*	*	*	*
!	!	!	!	!	!	!	!	!LO:DY:a:t=for	!	!	!LO:DY:a:t=fo
4C/	Cru-	.	2G/	Cru-	.	2e\	Cru-	f	2cc\	Cru-	f
8C/L	.	.	.	.	.	.	.	.	.	.	.
8D/J	.	.	.	.	.	.	.	.	.	.	.
8E\L	-ci-	.	4G/	-ci-	.	4e\	-ci-	.	4cc\	-ci-	.
8F\J	.	.	.	.	.	.	.	.	.	.	.
=65	=65	=65	=65	=65	=65	=65	=65	=65	=65	=65	=65
4G\	-fi-	.	4G/	-fi-	.	4e\	-fi-	.	4cc\	-fi-	.
2GG/	-xus	.	2G/	-xus	.	2d\	-xus	.	2b\	-xus	.
!LO:LB:g=original	!	!	!	!	!	!LO:LB:g=original	!	!	!LO:LB:g=original	!	!
=66	=66	=66	=66	=66	=66	=66	=66	=66	=66	=66	=66
4.G\	e-	.	4.B\	e-	.	4.f\	e-	.	4.dd\	e-	.
8A\	-ti-	.	8B\	-ti-	.	8f\	-ti-	.	8dd\	-ti-	.
8B\	-am	.	8B\	-am	.	8f\	-am	.	8dd\	-am	.
8G\	pro	.	8B\	pro	.	8f\	pro	.	8dd\	pro	.
=67	=67	=67	=67	=67	=67	=67	=67	=67	=67	=67	=67
4c\	no-	.	4G/	no-	.	4f\	no-	.	4dd\	no-	.
4C/	-bis	.	4G/	-bis	.	4e\	-bis	.	4cc\	-bis	.
4C/	sub	.	4c\	sub	.	4g\	sub	.	4ee\	sub	.
=68	=68	=68	=68	=68	=68	=68	=68	=68	=68	=68	=68
4.C/	Pon-	.	4.c\	Pon-	.	4.g\	Pon-	.	4.ee\	Pon-	.
8D/	-ti-	.	8B\	-ti-	.	8f\	-ti-	.	8dd\	-ti-	.
4E/	-i	.	4G\	-o	.	4e\	-o	.	4cc\	-o	.
=69	=69	=69	=69	=69	=69	=69	=69	=69	=69	=69	=69
4F\	Pi-	.	4B\	Pi-	.	4f\	Pi-	.	4dd\	Pi-	.
4F\	-la-	.	4B\	-la-	.	4f\	-la-	.	4dd\	-la-	.
4F#X\	.	.	4c\	.	.	4e\	.	.	4cc\	.	.
=70	=70	=70	=70	=70	=70	=70	=70	=70	=70	=70	=70
2G\	-to	.	2G/	-to	.	2d\	-to	.	2b\	-to	.
4r	.	.	4r	.	.	4r	.	.	4r	.	.
=71	=71	=71	=71	=71	=71	=71	=71	=71	=71	=71	=71
2.r	.	.	2G	paſ-	.	8d\L	paſ-	.	8b\L	paſ-	.
.	.	.	.	.	.	8e\	.	.	8cc\J	.	.
.	.	.	.	.	.	8f\	.	.	8dd\L	.	.
.	.	.	.	.	.	8e\J	.	.	8cc\J	.	.
.	.	.	4G	-sus	.	8d\L	.	.	8b\L	.	.
.	.	.	.	.	.	8f\J	.	.	8dd\J	.	.
!	!	!	!LO:LB:g=original	!	!	!LO:PB:g=original	!	!	!LO:LB:g=original	!	!
=72	=72	=72	=72	=72	=72	=72	=72	=72	=72	=72	=72
8c\L	paſ-	.	8e\L	paſ-	.	4e\	-sus	.	4cc\	-sus	.
8G\J	.	.	8d\J	.	.	.	.	.	.	.	.
8E\L	[[sus]]-	.	8c\L	.	.	4r	.	.	4r	.	.
8G\J	.	.	8d\J	.	.	.	.	.	.	.	.
4C/	-sus	.	4e\	-sus	.	4r	.	.	4r	.	.
!LO:LB:g=original	!	!	!	!	!	!	!	!	!	!	!
=73	=73	=73	=73	=73	=73	=73	=73	=73	=73	=73	=73
4G\	et	.	4d\	et	.	2g\	et	.	4ff\	et	.
4F\	.	.	4B\	.	.	.	.	.	4dd\	.	.
4E\	se-	.	4c\	se-	.	4g\	se-	.	4ee\	se-	.
=74	=74	=74	=74	=74	=74	=74	=74	=74	=74	=74	=74
4F\	-pul-	.	4A/	-pul-	.	4f\	-pul-	.	4dd\	-pul-	.
4G\	.	.	4G/	.	.	4e\	.	.	4cc\	.	.
4GG/	-tus	.	4G/	-tus	.	4d\	-tus	.	4b\	-tus	.
=75	=75	=75	=75	=75	=75	=75	=75	=75	=75	=75	=75
2C/	est	.	2G/	est	.	2e\	est	.	2cc\	est	.
4r	.	.	4r	.	.	4r	.	.	4r	.	.
!LO:LB:g=original	!	!	!LO:LB:g=original	!	!	!LO:LB:g=original	!	!	!LO:LB:g=original	!	!
=76||	=76||	=76||	=76||	=76||	=76||	=76||	=76||	=76||	=76||	=76||	=76||
*k[b-]	*	*	*k[b-]	*	*	*k[b-]	*	*	*k[b-]	*	*
*M2/2	*	*	*M2/2	*	*	*M2/2	*	*	*M2/2	*	*
*met(c|)	*	*	*met(c|)	*	*	*met(c|)	*	*	*met(c|)	*	*
!LO:TX:a:t=mode&colon;	!	!	!LO:TX:a:t=mod	!	!	!LO:TX:a:t=mod	!	!	!LO:TX:a:t=moderato	!	!
4r	.	.	4r	.	.	4r	.	.	4r	.	.
4FF/	Et	.	4f\	Et	.	4a\	Et	.	4cc\	Et	.
4AA/	re-	.	4f\	re-	.	4a\	re-	.	4cc\	re-	.
4C/	-sur-	.	4c\	-sur-	.	4g\	-sur-	.	4b-\	-sur-	.
=77	=77	=77	=77	=77	=77	=77	=77	=77	=77	=77	=77
4.F\	-re-	.	4.c\	-re-	.	4.f\	-re-	.	4.a\	-re-	.
8E\	.	.	8B-\	.	.	8g\	.	.	8b-\	.	.
2F\	-xit	.	2A\	-xit	.	2a\	-xit	.	2cc\	-xit	.
=78	=78	=78	=78	=78	=78	=78	=78	=78	=78	=78	=78
2F\	ter-	.	2f\	ter-	.	4a\	ter-	.	4cc\	ter-	.
.	.	.	.	.	.	8b-\L	.	.	8dd\L	.	.
.	.	.	.	.	.	8a\J	.	.	8cc\J	.	.
4E\	-ti-	.	4c\	-ti-	.	4g\	-ti-	.	4b-\	-ti-	.
4F\	-a	.	4c\	-a	.	4f\	-a	.	4a\	-a	.
=79	=79	=79	=79	=79	=79	=79	=79	=79	=79	=79	=79
4C/	Di-	.	4c\	Di-	.	4f\	Di-	.	4a\	di-	.
4C/	-e	.	4c\	-e	.	4e\	-e	.	4g\	-e	.
4r	.	.	4r	.	.	4r	.	.	4r	.	.
4C/	se-	.	4c\	se-	.	8e\L	se-	.	8g\L	se-	.
.	.	.	.	.	.	8f\J	.	.	8a\J	.	.
=80	=80	=80	=80	=80	=80	=80	=80	=80	=80	=80	=80
2C/	-cun-	.	2e\	-cun-	.	2g\	-cun-	.	2b-\	-cun-	.
4C/	-dum	.	4c\	-dum	.	4f\	-dum	.	4a\	-dum	.
4C/	scri-	.	4c\	scri-	.	4e\	scrip-	.	4g\	scrip-	.
!	!	!	!	!	!	!LO:LB:g=original	!	!	!LO:LB:g=original	!	!
=81	=81	=81	=81	=81	=81	=81	=81	=81	=81	=81	=81
4F\	-ptu-	.	4.A\	-ptu-	.	4.a\	-tu-	.	4.cc\	-tu-	.
4C\	.	.	.	.	.	.	.	.	.	.	.
.	.	.	8B-\	.	.	8g\	.	.	8b-\	.	.
2FF/	-ras	.	2c\	-ras	.	2f\	-ras	.	2a\	-ras	.
!LO:PB:g=original	!	!	!LO:LB:g=original	!	!	!	!	!	!	!	!
=82	=82	=82	=82	=82	=82	=82	=82	=82	=82	=82	=82
2r	.	.	2r	.	.	2r	.	.	2r	.	.
4F\	et	.	4c\	et	.	4A/	et	.	4f/	et	.
4F\	as-	.	4c\	as-	.	4A/	as-	.	4f/	as-	.
=83	=83	=83	=83	=83	=83	=83	=83	=83	=83	=83	=83
4F\	-cen-	.	1c	-cen-	.	4A/	-cen-	.	4f/	-cen-	.
4A\	.	.	.	.	.	8B-/L	.	.	8g/L	.	.
.	.	.	.	.	.	8c/J	.	.	8a/J	.	.
4c\	.	.	.	.	.	8d\L	.	.	8b-\L	.	.
.	.	.	.	.	.	8e\	.	.	8cc\	.	.
4A\	.	.	.	.	.	8f\	.	.	8dd\	.	.
.	.	.	.	.	.	8g\J	.	.	8ee\J	.	.
=84	=84	=84	=84	=84	=84	=84	=84	=84	=84	=84	=84
2F\	-dit	.	2c\	-dit	.	2a\	-dit	.	2ff\	-dit	.
8F\L	in	.	2c\	in	.	2a\	in	.	2ff\	in	.
8G\	.	.	.	.	.	.	.	.	.	.	.
8A\	.	.	.	.	.	.	.	.	.	.	.
8B-\J	.	.	.	.	.	.	.	.	.	.	.
=85	=85	=85	=85	=85	=85	=85	=85	=85	=85	=85	=85
4c\	cae-	.	4c\	cae-	.	4a\	cae-	.	4ff\	cae-	.
4C/	-lum	.	4c\	-lum	.	4g\	-lum	.	4ee\	-lum	.
[>2C/	se-	.	2c\	se-	.	4g\	se-	.	4ee\	[[d]]	.
.	.	.	.	.	.	4a\	.	.	4ff\	se-	.
=86	=86	=86	=86	=86	=86	=86	=86	=86	=86	=86	=86
2C/]	.	.	2e\	-det	.	2b-\	.	.	2gg\	.	.
!	!	!	!	!	!	!	!	!	!LO:N:vis=8	!	!
4F\	-det	.	4c\	.	.	4a\	-det	.	4ff\	-det	.
4C/	ad	.	4c\	ad	.	4g\	ad	.	4ee\	ad	.
!	!	!	!	!	!	!	!	!	!LO:LB:g=original	!	!
=87	=87	=87	=87	=87	=87	=87	=87	=87	=87	=87	=87
4F\	dex-	.	4c\	dex-	.	4a\	dex-	.	4ff\	dex-	.
8BB-/	-te-	.	8B-\	-te-	.	8b-\	-te-	.	8dd\	-te-	.
8D/	-ram	.	8d\	-ram	.	8g\	-ram	.	8b-\	-ram	.
!	!	!	!	!	!	!LO:LB:g=original	!	!	!	!	!
=-	=-	=-	=-	=-	=-	=-	=-	=-	=-	=-	=-
2C/	Pa-	.	2c\	Pa-	.	4f\	Pa-	.	4a\	Pa-	.
.	.	.	.	.	.	4e\	.	.	4g\	.	.
=88	=88	=88	=88	=88	=88	=88	=88	=88	=88	=88	=88
2F\	-tris	.	2c\	-tris	.	2f\	-tris.	.	2a\	-tris	.
8D\L	et	.	2A\	et	.	2f\	Et	.	2dd\	et	.
8E\	.	.	.	.	.	.	.	.	.	.	.
8F\	.	.	.	.	.	.	.	.	.	.	.
8G\J	.	.	.	.	.	.	.	.	.	.	.
!LO:LB:g=original	!	!	!LO:LB:g=original	!	!	!	!	!	!	!	!
=89	=89	=89	=89	=89	=89	=89	=89	=89	=89	=89	=89
4A\	i-	.	4A\	i-	.	4e\	i-	.	4cc#X\	i-	.
4A\	-te-	.	4A\	-te-	.	4f\	-te-	.	4dd\	-te-	.
4A\	-rum	.	4c#X\	-rum	.	4g\	-rum	.	4ee\	-rum	.
4AA/	ven-	.	4A\	ven-	.	4e\	ven-	.	4cc#\	ven-	.
=90	=90	=90	=90	=90	=90	=90	=90	=90	=90	=90	=90
4D\	-tu-	.	4A\	-tu-	.	4f\	-tu-	.	4dd\	-tu-	.
4E\	-rus	.	4A\	-rus	.	4e\	-rus	.	4cc#X\	-rus	.
4F\	est	.	4A\	est	.	4f\	est	.	4dd\	est	.
4D\	cum	.	4A\	cum	.	8g\L	cum	.	8ee\L	cum	.
.	.	.	.	.	.	8f\J	.	.	8dd\J	.	.
=91	=91	=91	=91	=91	=91	=91	=91	=91	=91	=91	=91
8A\L	glo-	.	4.A\	glo-	.	4.e\	glo-	.	4.cc#X\	glo-	.
8E\J	.	.	.	.	.	.	.	.	.	.	.
8C#X/	.	.	.	.	.	.	.	.	.	.	.
8E/	-ri-	.	8A\	-ri-	.	8e\	-ri-	.	8cc#\	-ri-	.
4AA/	-a	.	4A\	-a	.	4e\	-a	.	4cc#\	-a	.
4r	.	.	4r	.	.	4r	.	.	4r	.	.
!	!	!	!	!	!	!	!	!	!LO:LB:g=original	!	!
=92	=92	=92	=92	=92	=92	=92	=92	=92	=92	=92	=92
4AA/	ju-	.	4A\	ju-	.	4e\	ju-	.	4cc#X\	ju-	.
4AA/	-di-	.	4A\	-di-	.	4f\	-di-	.	4dd\	-di-	.
4AA/	-ca-	.	4c#X\	-ca-	.	4g\	-ca-	.	4ee\	-ca-	.
4AA/	-re	.	4A\	-re	.	4e\	-re	.	4cc#\	-re	.
=93	=93	=93	=93	=93	=93	=93	=93	=93	=93	=93	=93
4D\	vi-	.	4A\	vi-	.	4f\	vi-	.	4dd\	vi-	.
4D\	-vos	.	4A\	-vos	.	4e\	-vos	.	4cc\	-vos	.
!	!	!	!	!	!	!LO:LB:g=original	!	!	!	!	!
=-	=-	=-	=-	=-	=-	=-	=-	=-	=-	=-	=-
4r	.	.	4r	.	.	4r	.	.	4r	.	.
!LO:TX:a:t=adagio	!	!	!LO:TX:a:t=adagio	!	!	!LO:TX:a:t=ada	!	!	!LO:TX:a:t=ada	!	!
4AA/	et	.	4A\	et	.	4e\	et	.	4cc\	et	.
!	!	!	!LO:LB:g=original	!	!	!	!	!	!	!	!
=94	=94	=94	=94	=94	=94	=94	=94	=94	=94	=94	=94
4D\	mor-	.	2.A\	mor-	.	2.f\	mor-	.	2.dd\	mor-	.
4E\	.	.	.	.	.	.	.	.	.	.	.
4F\	.	.	.	.	.	.	.	.	.	.	.
4G\	-tu-	.	4Bn\	-tu-	.	4f\	-tu-	.	4dd\	-tu-	.
!LO:LB:g=original	!	!	!	!	!	!	!	!	!	!	!
=95	=95	=95	=95	=95	=95	=95	=95	=95	=95	=95	=95
2A;\	-os	.	2A;\	-os	.	2e;>\	-os	.	2cc#X\	-os.	.
!LO:TX:a:t=allo	!	!	!LO:TX:a:t=allo	!	!	!LO:TX:a:t=allo	!	!	!LO:TX:a:t=allo	!	!
4C#X/	cu-	.	4A\	cu-	.	4e\	cu-	.	4cc#\	cu-	.
4AA/	-jus	.	4c#X\	-jus	.	4g\	-jus	.	4ee\	-jus	.
=96	=96	=96	=96	=96	=96	=96	=96	=96	=96	=96	=96
2D/	re-	.	2d\	re-	.	2a\	re-	.	2ff\	re-	.
4AA/	-gni	.	4c#X\	-gni	.	4g\	-gni	.	4ee\	-gni	.
4AA/	non	.	4c#\	non	.	4g\	non	.	4ee\	non	.
=97	=97	=97	=97	=97	=97	=97	=97	=97	=97	=97	=97
4D\	e-	.	4d\	e-	.	4a\	e-	.	4ff\	e-	.
4G\	-rit	.	4A\	-rit	.	8b-\L	-rit	.	8gg\L	-rit	.
.	.	.	.	.	.	8g\J	.	.	8ee\J	.	.
4A\	fi-	.	2A\	fi-	.	4f\	fi-	.	4dd\	fi-	.
4AA/	.	.	.	.	.	4e\	.	.	4cc#X\	.	.
!	!	!	!	!	!	!	!	!	!LO:LB:g=original	!	!
=98	=98	=98	=98	=98	=98	=98	=98	=98	=98	=98	=98
.	.	.	.	.	.	.	.	.	8qqcc/	.	.
2D\	-nis	.	2A\	-nis	.	2f\	-nis	.	2dd\	-nis	.
2r	.	.	2r	.	.	2r	.	.	2r	.	.
=99	=99	=99	=99	=99	=99	=99	=99	=99	=99	=99	=99
4F\	Et	.	2f\	Et	.	2.a\	et	.	2ccn\	et	.
4G\	.	.	.	.	.	.	.	.	.	.	.
4A\	.	.	2c\	in	.	.	.	.	4ff\	.	.
4F\	in	.	.	.	.	8b-\L	in	.	8gg\L	in	.
.	.	.	.	.	.	8a\J	.	.	8ff\J	.	.
!	!	!	!	!	!	!LO:LB:g=original	!	!	!	!	!
=100	=100	=100	=100	=100	=100	=100	=100	=100	=100	=100	=100
4.C/	Spi-	.	4.c\	Spi-	.	4.g\	Spi-	.	4.ee\	Spi-	.
8C/	-ri-	.	8c\	-ri-	.	8g\	-ri-	.	8ee\	-ri-	.
2C/	-tum	.	2c\	-tum	.	2g\	-tum	.	2ee\	-tum	.
!	!	!	!LO:LB:g=original	!	!	!	!	!	!	!	!
=101	=101	=101	=101	=101	=101	=101	=101	=101	=101	=101	=101
4C/	Sanc-	.	4e\	Sanc-	.	4b-\	Sanc-	.	4gg\	Sanc-	.
4D/	.	.	4d\	.	.	4a\	.	.	4ff\	.	.
4E/	.	.	4c\	tum	.	4g\	-tum	.	4ee\	-tum	.
!LO:N:vis=8	!	!	!	!	!	!	!	!	!	!	!
4C/	-tum	.	4e\	.	.	4b-\	.	.	4gg\	.	.
!LO:LB:g=original	!	!	!	!	!	!	!	!	!	!	!
=102	=102	=102	=102	=102	=102	=102	=102	=102	=102	=102	=102
8F\L	Do-	.	4.c\	do-	.	4.a\	Do-	.	4.ff\	Do-	.
8C\J	.	.	.	.	.	.	.	.	.	.	.
8AA/L	-mi-	.	.	.	.	.	.	.	.	.	.
8C/J	.	.	8c\	-mi-	.	8a\	-mi-	.	8ff\	-mi-	.
2FF/	-num	.	2c\	-num	.	2a\	-num	.	2ff\	-num	.
=103	=103	=103	=103	=103	=103	=103	=103	=103	=103	=103	=103
4F\	et	.	4F/	et	.	4b-\	et	.	4dd\	et	.
4F\	vi-	.	4A/	vi-	.	4a\	vi-	.	4cc\	vi-	.
4F\	-vi-	.	4A/	-vi-	.	4a\	-vi-	.	4ff\	-vi-	.
4E\	-fi-	.	4B-/	-fi-	.	4b-\	-fi-	.	4dd\	-fi-	.
=104	=104	=104	=104	=104	=104	=104	=104	=104	=104	=104	=104
4F\	-can-	.	1c	-can-	.	2a\	-can-	.	2cc\	-can-	.
4A\	.	.	.	.	.	.	.	.	.	.	.
4c\	.	.	.	.	.	2g\	.	.	2b-\	.	.
4C/	.	.	.	.	.	.	.	.	.	.	.
!	!	!	!	!	!	!	!	!	!LO:LB:g=original	!	!
=105	=105	=105	=105	=105	=105	=105	=105	=105	=105	=105	=105
4F\	-tem	.	4c\	-tem	.	4f\	-tem	.	4a\	-tem	.
(>4F\	qui	.	(4A\	qui	.	2f\	qui	.	(4cc\	qui	.
4G\)	.	.	4B-\)	.	.	.	.	.	4dd\)	.	.
4A\	ex	.	4c\	ex	.	4f\	ex	.	4ee-X\	ex	.
=106	=106	=106	=106	=106	=106	=106	=106	=106	=106	=106	=106
4B-\	Pa-	.	2B-\	Pa-	.	2f\	Pa-	.	2dd\	Pa-	.
8F\L	.	.	.	.	.	.	.	.	.	.	.
8D\J	.	.	.	.	.	.	.	.	.	.	.
2BB-/	-tre	.	2B-\	-tre	.	2f\	-tre	.	2dd\	-tre	.
!	!	!	!	!	!	!LO:LB:g=original	!	!	!	!	!
=107	=107	=107	=107	=107	=107	=107	=107	=107	=107	=107	=107
4r	.	.	4r	.	.	4r	.	.	4r	.	.
4G\	fi-	.	4Bn\	fi-	.	2g\	fi-	.	4dd\	fi-	.
4A\	.	.	4c\	.	.	.	.	.	4een\	.	.
4Bn\	-li-	.	4d\	-li-	.	4g\	-li-	.	4ff\	-li-	.
!LO:LB:g=original	!	!	!LO:LB:g=original	!	!	!	!	!	!	!	!
=108	=108	=108	=108	=108	=108	=108	=108	=108	=108	=108	=108
4c\	-o-	.	4c\	-o-	.	4g\	-o-	.	4ee\	-o-	.
4B-X\	-que	.	4B-X\	.	.	4e\	.	.	4cc\	-que	.
4A\	.	.	4c\	-que	.	4a\	-que	.	4ff\	.	.
4G\	pro-	.	4c\	pro-	.	4b-\	pro-	.	4gg\	pro-	.
=109	=109	=109	=109	=109	=109	=109	=109	=109	=109	=109	=109
4F\	-ce-	.	1c	-ce-	.	2a\	-ce-	.	2ff\	-ce-	.
8A\L	.	.	.	.	.	.	.	.	.	.	.
8F\J	.	.	.	.	.	.	.	.	.	.	.
4c\	.	.	.	.	.	2g\	.	.	2ee\	.	.
4C/	.	.	.	.	.	.	.	.	.	.	.
=110	=110	=110	=110	=110	=110	=110	=110	=110	=110	=110	=110
2F\	-dit	.	2c\	-dit	.	2a\	-dit	.	2ff\	-dit	.
2r	.	.	2r	.	.	2r	.	.	2r	.	.
=111	=111	=111	=111	=111	=111	=111	=111	=111	=111	=111	=111
2.F\	qui	.	2A\	qui	.	2a\	qui	.	2cc\	qui	.
.	.	.	4c\	.	.	4f\	.	.	4a\	.	.
4E\	cum	.	4B-\	cum	.	4g\	cum	.	4b-\	cum	.
!	!	!	!	!	!	!	!	!	!LO:LB:g=original	!	!
=112	=112	=112	=112	=112	=112	=112	=112	=112	=112	=112	=112
4F\	Pa-	.	4A/	Pa-	.	4a\	Pa-	.	4cc\	Pa-	.
4E\	.	.	4G/	.	.	4b-\	.	.	4dd\	.	.
4F\	-tre	.	4F/	-tre	.	4a\	-tre	.	4cc\	-tre	.
4F\	et	.	4F/	et	.	4a\	et	.	4cc\	et	.
=113	=113	=113	=113	=113	=113	=113	=113	=113	=113	=113	=113
2BB-/	fi-	.	2F/	fi-	.	2b-\	fi-	.	2dd\	fi-	.
2C/	-li-	.	2B-\	-li-	.	2g\	-li-	.	2ee\	-li-	.
!LO:LB:g=original	!	!	!	!	!	!LO:LB:g=original	!	!	!	!	!
=114	=114	=114	=114	=114	=114	=114	=114	=114	=114	=114	=114
2F\	-o	.	2c\	-o	.	2a\	-o	.	2ff\	-o	.
4F\	si-	.	4c\	si-	.	4a\	si-	.	4ff\	si-	.
4F\	-mul	.	4c\	-mul	.	4a\	-mul	.	4ff\	-mul	.
!	!	!	!LO:LB:g=original	!	!	!	!	!	!	!	!
=115	=115	=115	=115	=115	=115	=115	=115	=115	=115	=115	=115
4C/	a-	.	4c\	a-	.	4g\	a-	.	4ee\	a-	.
4F\	-do-	.	4A\	-do-	.	4a\	-do-	.	4ff\	-do-	.
4G\	-ra-	.	4G\	-ra-	.	4g\	-ra-	.	4ee\	-ra-	.
4GG/	.	.	4Bn\	.	.	4f\	.	.	4dd\	.	.
=116	=116	=116	=116	=116	=116	=116	=116	=116	=116	=116	=116
2C/	-tur,	.	2G/	-tur	.	2e\	-tur	.	2cc\	-tur	.
2B-X\	et	.	2c\	et	.	2g\	et	.	2ee\	et	.
=117	=117	=117	=117	=117	=117	=117	=117	=117	=117	=117	=117
4A\	con-	.	4F/	con-	.	4a\	con-	.	4cc\	con-	.
4G\	-glo-	.	4G/	-glo-	.	4b-\	-glo-	.	4dd\	-glo-	.
4F\	-ri-	.	4A/	-ri-	.	4a\	-ri-	.	4cc\	-ri-	.
4E\	-fi-	.	4B-/	-fi-	.	4g\	-fi-	.	4b-X\	-fi-	.
=118	=118	=118	=118	=118	=118	=118	=118	=118	=118	=118	=118
4F\	-ca-	.	4c\	-ca-	.	4f\	-ca-	.	4a\	-ca-	.
4C/	-tur,	.	4c\	-tur,	.	4e\	-tur	.	4g\	-tur	.
!	!	!	!	!	!	!	!	!	!LO:LB:g=original	!	!
=-	=-	=-	=-	=-	=-	=-	=-	=-	=-	=-	=-
4C/	qui	.	4c\	qui	.	4e\	qui	.	4g\	qui	.
4C/	lo-	.	4c\	lo-	.	4f\	lo-	.	4a\	lo-	.
=119	=119	=119	=119	=119	=119	=119	=119	=119	=119	=119	=119
4E\	-cu-	.	2c\	-cu-	.	2g\	-cu-	.	2b-\	-cu-	.
4C\	.	.	.	.	.	.	.	.	.	.	.
2F\	-tus	.	2c\	-tus	.	2f\	-tus	.	2a\	-tus	.
!LO:LB:g=original	!	!	!	!	!	!LO:LB:g=original	!	!	!	!	!
=120	=120	=120	=120	=120	=120	=120	=120	=120	=120	=120	=120
2C/	est	.	2c\	est	.	2e\	est	.	2g\	est	.
4F\	per	.	4A\	per	.	4f\	per	.	4cc\	per	.
4E\	pro-	.	4B-\	pro-	.	4g\	pro-	.	4cc\	pro-	.
=121	=121	=121	=121	=121	=121	=121	=121	=121	=121	=121	=121
4F\	-phe-	.	2A\	-phe-	.	2f\	-phe-	.	1cc	-phe-	.
4A\	.	.	.	.	.	.	.	.	.	.	.
4c\	.	.	2G\	.	.	2e\	.	.	.	.	.
4C/	.	.	.	.	.	.	.	.	.	.	.
!	!	!	!LO:LB:g=original	!	!	!	!	!	!	!	!
=122	=122	=122	=122	=122	=122	=122	=122	=122	=122	=122	=122
2F\	-tas	.	2A\	-tas	.	2f\	-tas	.	2cc\	-tas	.
2r	.	.	2r	.	.	2r	.	.	2r	.	.
=123	=123	=123	=123	=123	=123	=123	=123	=123	=123	=123	=123
4D\	Et	.	2A\	Et	.	4f\	Et	.	4dd\	et	.
4E\	.	.	.	.	.	4e\	.	.	4cc#X\	.	.
4F\	u-	.	4A\	u-	.	4f\	u-	.	4dd\	u-	.
4E\	-nam	.	4A\	-nam	.	4g\	-nam	.	4ee\	-nam	.
=124	=124	=124	=124	=124	=124	=124	=124	=124	=124	=124	=124
4D\	Sanc-	.	4A\	Sanc-	.	4f\	Sanc-	.	4dd\	Sanc-	.
4AA/	-tam	.	4A\	-tam	.	4e\	-tam	.	4cc#X\	-tam	.
4r	.	.	4r	.	.	4r	.	.	4r	.	.
4A\	ca-	.	4A\	ca-	.	8e\L	ca-	.	8cc#X\L	ca-	.
.	.	.	.	.	.	8f\J	.	.	8dd\J	.	.
!	!	!	!	!	!	!	!	!	!LO:PB:g=original	!	!
=125	=125	=125	=125	=125	=125	=125	=125	=125	=125	=125	=125
2.A\	-tho-	.	2c#X\	-tho-	.	2g\	-tho-	.	2ee\	-tho-	.
.	.	.	4A\	.	.	4f\	.	.	4dd\	.	.
4AA/	-li-	.	4A\	-li-	.	4e\	-li-	.	4cc#X\	-li-	.
!	!	!	!	!	!	!LO:LB:g=original	!	!	!	!	!
=126	=126	=126	=126	=126	=126	=126	=126	=126	=126	=126	=126
4D\	-cam	.	4A\	-cam	.	4f\	-cam	.	4dd\	-cam	.
4G\	et	.	4B-X\	et	.	4e\	et	.	4cc#X\	et	.
!LO:LB:g=original	!	!	!	!	!	!	!	!	!	!	!
=-	=-	=-	=-	=-	=-	=-	=-	=-	=-	=-	=-
4G\	A-	.	4B-\	A-	.	4e\	A-	.	4cc#\	A-	.
4G\	-pos-	.	4B-\	-pos-	.	4e\	-pos	.	4cc#\	-pos	.
=127	=127	=127	=127	=127	=127	=127	=127	=127	=127	=127	=127
4.F\	-to-	.	4.A\	-to-	.	4.f\	to-	.	4.dd\	to-	.
8E\	-li-	.	8c#X\	-li-	.	8g\	-li-	.	8ee\	-li-	.
2D\	-cam	.	2d\	-cam	.	2a\	-cam	.	2ff\	-cam	.
!	!	!	!LO:LB:g=original	!	!	!	!	!	!	!	!
=128	=128	=128	=128	=128	=128	=128	=128	=128	=128	=128	=128
4G\	Ec-	.	4B-\	Ec-	.	4g\	Ec-	.	4ee\	Ec-	.
2A\	-cle-	.	2A\	-cle-	.	2f\	-cle-	.	2dd\	-cle-	.
4AA/	-si-	.	4A\	-si-	.	4e\	-si-	.	4cc#X\	-si-	.
=129	=129	=129	=129	=129	=129	=129	=129	=129	=129	=129	=129
2D/	-am.	.	2A\	-am	.	2f\	-am	.	2dd\	-am	.
4r	.	.	4r	.	.	4r	.	.	4r	.	.
4Cn/	Con-	.	4G/	con-	.	4e\	Con-	.	4ccn\	Con-	.
=130	=130	=130	=130	=130	=130	=130	=130	=130	=130	=130	=130
8F\L	-fi-	.	4.A/	-fi-	.	4.f\	-fi-	.	4.cc\	-fi-	.
8A\J	.	.	.	.	.	.	.	.	.	.	.
8c\	.	.	.	.	.	.	.	.	.	.	.
8A\	-te-	.	8A/	-te-	.	8f\	-te-	.	8cc\	-te-	.
2F\	-or	.	2A/	-or	.	2f\	-or	.	2cc\	-or	.
=131	=131	=131	=131	=131	=131	=131	=131	=131	=131	=131	=131
2F\	u-	.	4A\	u-	.	4f\	u-	.	2cc\	u-	.
.	.	.	4c\	-num	.	4a\	.	.	.	.	.
4E\	-num	.	4B-\	bap-	.	4g\	-num	.	4cc\	-num	.
4F\	bap-	.	4A\	-ti-	.	4f\	bap-	.	4cc\	bap-	.
!	!	!	!	!	!	!LO:LB:g=original	!	!	!LO:LB:g=original	!	!
=132	=132	=132	=132	=132	=132	=132	=132	=132	=132	=132	=132
4C/	-ti-	.	4A/	-ſma	.	4f\	-tis-	.	4cc\	-tis-	.
4C/	-ſma	.	4G/	.	.	4e\	-ma	.	4cc\	-ma	.
2r	.	.	2r	.	.	2r	.	.	2r	.	.
!LO:LB:g=original	!	!	!	!	!	!	!	!	!	!	!
=133	=133	=133	=133	=133	=133	=133	=133	=133	=133	=133	=133
4B-\	in	.	4B-\	in	.	4f\	in	.	4dd\	in	.
4A\	re-	.	4c\	re-	.	4f\	re-	.	4cc\	re-	.
4G\	-miſ-	.	4c\	-miſ-	.	4e\	-miſ-	.	4b-\	-miſ-	.
4F\	-si-	.	4c\	-si-	.	4f\	-si-	.	4a\	-si-	.
=134	=134	=134	=134	=134	=134	=134	=134	=134	=134	=134	=134
4E\	-o-	.	4c\	-o-	.	4e\	-o-	.	4g/	-o-	.
4C/	-nem	.	4c\	-nem	.	4e\	-nem	.	4g/	-nem	.
2r	.	.	2r	.	.	2r	.	.	2r	.	.
!	!	!	!LO:PB:g=original	!	!	!	!	!	!	!	!
=135	=135	=135	=135	=135	=135	=135	=135	=135	=135	=135	=135
!LO:TX:a:t=ada&colon;	!	!	!LO:TX:a:t=ada.	!	!	!LO:TX:b:i:t=adagio	!	!	!LO:TX:b:i:t=ada	!	!
4C\	pec-	.	1c	pec-	.	1g	pec-	.	1ee	pec-	.
4G\	.	.	.	.	.	.	.	.	.	.	.
4E\	.	.	.	.	.	.	.	.	.	.	.
4C\	.	.	.	.	.	.	.	.	.	.	.
=136	=136	=136	=136	=136	=136	=136	=136	=136	=136	=136	=136
4F\	-ca-	.	1c	-ca-	.	1a-X	-ca-	.	1ff	-ca-	.
4c\	.	.	.	.	.	.	.	.	.	.	.
4A-X\	.	.	.	.	.	.	.	.	.	.	.
4F\	.	.	.	.	.	.	.	.	.	.	.
=137	=137	=137	=137	=137	=137	=137	=137	=137	=137	=137	=137
4F\	-to-	.	1c	-to-	.	1a	-to-	.	1ff	-to-	.
4D-X\	.	.	.	.	.	.	.	.	.	.	.
4C/	.	.	.	.	.	.	.	.	.	.	.
4BBn/	.	.	.	.	.	.	.	.	.	.	.
=138	=138	=138	=138	=138	=138	=138	=138	=138	=138	=138	=138
1C	-rum	.	1c	-rum	.	1g	-rum	.	1ee;>	-rum	.
=139	=139	=139	=139	=139	=139	=139	=139	=139	=139	=139	=139
!	!	!	!	!	!	!LO:TX:a:i:t=allo	!	!	!LO:TX:a:i:t=allo	!	!
4r	.	.	4r	.	.	4r	.	.	4r	.	.
!LO:TX:a:t=allo	!	!	!LO:TX:a:t=allo	!	!	!	!	!	!	!	!
4C/	Et	.	2c\	Et	.	4g\	Et	.	4ee\	et	.
4E/	.	.	.	.	.	4b-\	.	.	4gg\	.	.
4C/	ex-	.	4c\	ex-	.	4g\	ex-	.	4ee\	ex-	.
!LO:LB:g=original	!	!	!	!	!	!LO:PB:g=original	!	!	!LO:LB:g=original	!	!
=140	=140	=140	=140	=140	=140	=140	=140	=140	=140	=140	=140
4F\	-pec-	.	4c\	-pec-	.	4an\	-pec-	.	4ff\	-pec-	.
4F\	-to	.	4c\	-to	.	4a\	-to	.	4ff\	-to	.
2r	.	.	2r	.	.	2r	.	.	2r	.	.
=141	=141	=141	=141	=141	=141	=141	=141	=141	=141	=141	=141
4.C/	re-	.	4.c\	re-	.	4.g\	re-	.	4.ee\	re-	.
8C/	-sur-	.	8c\	-sur-	.	8g\	-sur-	.	8ee\	-sur-	.
4E/	-rec-	.	4c\	-rec-	.	4b-\	-rec-	.	4gg\	-rec-	.
4C/	-ti-	.	4c\	-ti-	.	4g\	-ti-	.	4ee\	-ti-	.
=142	=142	=142	=142	=142	=142	=142	=142	=142	=142	=142	=142
4F\	-o-	.	4c\	-o-	.	4a\	-o-	.	4ff\	-o-	.
4F\	-nem	.	4c\	-nem	.	4a\	-nem	.	4ff\	-nem	.
2r	.	.	2r	.	.	2r	.	.	2r	.	.
=143	=143	=143	=143	=143	=143	=143	=143	=143	=143	=143	=143
!LO:TX:a:t=ada.	!	!	!LO:TX:a:t=ada	!	!LO:DY:a	!LO:TX:a:t=adagio	!	!	!LO:TX:a:t=ada&colon;	!	!
4F\	mor-	.	1A-X	mor-	p	1f	mor-	.	1cc	mor-	.
4G\	.	.	.	.	.	.	.	.	.	.	.
4A-X\	.	.	.	.	.	.	.	.	.	.	.
4F\	.	.	.	.	.	.	.	.	.	.	.
!	!	!	!LO:LB:g=original	!	!	!	!	!	!	!	!
=144	=144	=144	=144	=144	=144	=144	=144	=144	=144	=144	=144
1En	-tu-	.	1B-	-tu-	.	1en	-tu-	.	1dd-X	-tu-	.
=145	=145	=145	=145	=145	=145	=145	=145	=145	=145	=145	=145
4F\	-o-	.	1A-X	-o-	.	1f	-o-	.	1cc	-o-	.
4C/	.	.	.	.	.	.	.	.	.	.	.
4AA-X/	.	.	.	.	.	.	.	.	.	.	.
4FF/	.	.	.	.	.	.	.	.	.	.	.
=146	=146	=146	=146	=146	=146	=146	=146	=146	=146	=146	=146
4C/	.	.	1c	.	.	1g	.	.	1b-X	.	.
4c\	.	.	.	.	.	.	.	.	.	.	.
4G\	.	.	.	.	.	.	.	.	.	.	.
4E\	.	.	.	.	.	.	.	.	.	.	.
!LO:LB:g=original	!	!	!	!	!	!	!	!	!	!	!
=147	=147	=147	=147	=147	=147	=147	=147	=147	=147	=147	=147
4F\	.	.	1c	.	.	1f	.	.	1a-X	.	.
4c\	.	.	.	.	.	.	.	.	.	.	.
4A-X\	.	.	.	.	.	.	.	.	.	.	.
4F\	.	.	.	.	.	.	.	.	.	.	.
=148	=148	=148	=148	=148	=148	=148	=148	=148	=148	=148	=148
2C;>/	-rum	.	2c\	-rum	.	2en\	-rum	.	2g;>/	-rum	.
!	!	!	!	!	!	!	!	!	!LO:LB:g=original	!	!
=-	=-	=-	=-	=-	=-	=-	=-	=-	=-	=-	=-
4r	.	.	4r	.	.	4r	.	.	4r	.	.
!LO:TX:a:t=allo	!	!	!LO:TX:a:t=allo	!	!	!LO:TX:a:t=allo	!	!	!LO:TX:a:i:t=allo	!	!
4C/	Et	.	4c\	Et	.	4e\	et	.	4g\	et	.
!	!	!	!	!	!	!LO:LB:g=original	!	!	!	!	!
=149	=149	=149	=149	=149	=149	=149	=149	=149	=149	=149	=149
4F\	vi-	.	4c\	vi-	.	4f\	vi-	.	4an\	vi-	.
4F\	-tam	.	4c\	-tam	.	4f\	-tam	.	4a\	-tam	.
4r	.	.	4r	.	.	4r	.	.	4r	.	.
4C/	ven-	.	4e\	ven-	.	4g\	ven-	.	4b-\	ven-	.
=150	=150	=150	=150	=150	=150	=150	=150	=150	=150	=150	=150
4F\	-tu-	.	4f\	-tu-	.	4an\	-tu-	.	4cc\	-tu-	.
4F\	-ri	.	4f\	-ri	.	4a\	-ri	.	4cc\	-ri	.
4r	.	.	4r	.	.	4r	.	.	4r	.	.
4F\	ven-	.	4f\	ven-	.	4a\	ven-	.	4cc\	ven-	.
=151	=151	=151	=151	=151	=151	=151	=151	=151	=151	=151	=151
2B-\	-tu-	.	2g\	-tu-	.	2b-\	-tu-	.	2dd\	-tu-	.
2c\	-ri	.	2c\	-ri	.	2g\	-ri	.	2ee\	-ri	.
=152	=152	=152	=152	=152	=152	=152	=152	=152	=152	=152	=152
4F\	sae-	.	4c\	sae-	.	4a\	Sae-	.	4ff\	Sae-	.
4C\	-cu-	.	4c\	-cu-	.	8g\L	-cu-	.	8ee\L	-cu-	.
.	.	.	.	.	.	8b-\J	.	.	8dd\J	.	.
!	!	!	!LO:LB:g=original	!	!	!	!	!	!	!	!
=-	=-	=-	=-	=-	=-	=-	=-	=-	=-	=-	=-
4F\	-li	.	4f\	-li	.	4a\	-li	.	4cc\	-li	.
4B-\	a-	.	4f\	a-	.	4b-\	a-	.	4dd\	a-	.
!LO:PB:g=original	!	!	!	!	!	!	!	!	!	!	!
=153	=153	=153	=153	=153	=153	=153	=153	=153	=153	=153	=153
4A\	.	.	4f\	.	.	4a\	.	.	4cc\	.	.
4B-\	.	.	4d\	.	.	4b-\	.	.	4gg\	.	.
4c\	.	.	2c\	.	.	4a\	.	.	4ff\	.	.
4C/	.	.	.	.	.	4g\	.	.	4ee\	.	.
=154	=154	=154	=154	=154	=154	=154	=154	=154	=154	=154	=154
2F\	-men	.	2c\	-men	.	2a\	-men	.	2ff\	-men	.
2C/	a-	.	2c\	a-	.	2g\	a-	.	2ee\	a-	.
!	!	!	!	!	!	!	!	!	!LO:LB:g=original	!	!
=155	=155	=155	=155	=155	=155	=155	=155	=155	=155	=155	=155
2F\	-men	.	2c\	-men	.	2a\	-men	.	2ff\	-men	.
2C/	a-	.	2c\	a-	.	2g\	a-	.	2ee\	a-	.
=156	=156	=156	=156	=156	=156	=156	=156	=156	=156	=156	=156
1FF	-men	.	1c	-men	.	1a	-men.	.	2ff\	-men.	.
.	.	.	.	.	.	.	.	.	2r	.	.
!LO:LB:g=original	!	!	!LO:LB:g=original	!	!	!LO:LB:g=original	!	!	!LO:LB:g=original	!	!
==	==	==	==	==	==	==	==	==	==	==	==
*-	*-	*-	*-	*-	*-	*-	*-	*-	*-	*-	*-
!!!system-decoration: [(s1,s2,s3,s4)]
!!!RDF**kern: < = below
!!!RDF**kern: > = above
!!!ENC: Marta Chmielewska
!!!END: 2021-08-06
!!!ENC:Anastazja Marusiak
!!!END:2021-07-08
